dist/img/icons/logo.svg

<svg width="82" height="18" viewBox="0 0 82 18" fill="none" xmlns="http://www.w3.org/2000/svg">
<path fill-rule="evenodd" clip-rule="evenodd" d="M0.451613 0C0.202194 0 0 0.202194 0 0.451613V3.14839C0 3.39781 0.202193 3.6 0.451612 3.6H11.9086C12.1139 3.6 12.2934 3.46146 12.3455 3.26281L13.0518 0.566033C13.1267 0.279796 12.9108 0 12.6149 0H0.451613ZM3.31981 17.9998H0.451613C0.202194 17.9998 0 17.7976 0 17.5482V7.6514C0 7.40198 0.202194 7.19978 0.451613 7.19978H10.7292C11.025 7.19978 11.241 7.47959 11.166 7.76582L10.4597 10.4626C10.4077 10.6612 10.2282 10.7998 10.0229 10.7998H4.22304C3.97362 10.7998 3.77143 11.002 3.77143 11.2514V17.5482C3.77143 17.7976 3.56923 17.9998 3.31981 17.9998ZM18.7484 0C18.9978 0 19.2 0.202193 19.2 0.451612V17.5484C19.2 17.7978 18.9978 18 18.7484 18H16.0516C15.8022 18 15.6 17.7978 15.6 17.5484V0.451613C15.6 0.202194 15.8022 0 16.0516 0H18.7484Z" fill="#FF4C5C"/>
<path d="M35.581 0H38.3484C38.5978 0 38.8 0.202193 38.8 0.451612V17.5481C38.8 17.7974 38.5978 17.9996 38.3484 17.9996H36.5156C36.2465 17.9996 35.9916 17.8798 35.82 17.6726L27.2703 7.3525C27.1353 7.18961 26.8706 7.28503 26.8706 7.49656V17.5484C26.8706 17.7978 26.6684 18 26.419 18H23.6516C23.4022 18 23.2 17.7978 23.2 17.5484V0.451613C23.2 0.202194 23.4022 0 23.6516 0H25.484C25.7529 0 26.0079 0.119876 26.1795 0.327004L34.7297 10.6478C34.8647 10.8107 35.1294 10.7153 35.1294 10.5038V0.451613C35.1294 0.202194 35.3316 0 35.581 0ZM60.4 9C60.4 13.9705 56.3705 18 51.4 18C46.4295 18 42.4 13.9705 42.4 9C42.4 4.02943 46.4295 0 51.4 0C56.3705 0 60.4 4.02943 60.4 9ZM45.9807 9C45.9807 11.993 48.407 14.4193 51.4 14.4193C54.393 14.4193 56.8193 11.993 56.8193 9C56.8193 6.00702 54.393 3.58073 51.4 3.58073C48.407 3.58073 45.9807 6.00702 45.9807 9ZM81.5484 18H78.8516C78.6022 18 78.4 17.7978 78.4 17.5484V7.83582C78.4 7.61939 78.125 7.52694 77.9943 7.69942L73.5399 13.5764C73.2688 13.9342 72.7312 13.9342 72.4601 13.5764L68.0057 7.69942C67.875 7.52694 67.6 7.61939 67.6 7.83582V17.5484C67.6 17.7978 67.3978 18 67.1484 18H64.4516C64.2022 18 64 17.7978 64 17.5484V0.460994C64 0.212315 64.201 0.0104288 64.4498 0.0093853L66.4608 0.0009465C66.6028 0.000350592 66.7368 0.0665879 66.8226 0.179766L72.82 8.09274C72.9104 8.21196 73.0896 8.21196 73.18 8.09274L79.1645 0.196812C79.2498 0.0841648 79.383 0.017988 79.5244 0.017988H81.5484C81.7978 0.017988 82 0.220181 82 0.4696V17.5484C82 17.7978 81.7978 18 81.5484 18Z" fill="#FF4C5C"/>
</svg>

<svg width="82" height="18" viewBox="0 0 82 18" fill="none" xmlns="http://www.w3.org/2000/svg"><path fill-rule="evenodd" clip-rule="evenodd" d="M.452 0A.452.452 0 000 .452v2.696c0 .25.202.452.452.452h11.457a.452.452 0 00.436-.337l.707-2.697A.452.452 0 0012.615 0H.452zM3.32 18H.452A.452.452 0 010 17.548V7.651C0 7.402.202 7.2.452 7.2h10.277c.296 0 .512.28.437.566l-.706 2.697a.452.452 0 01-.437.337h-5.8a.452.452 0 00-.452.451v6.297c0 .25-.202.452-.451.452zM18.748 0c.25 0 .452.202.452.452v17.096c0 .25-.202.452-.452.452h-2.696a.452.452 0 01-.452-.452V.452c0-.25.202-.452.452-.452h2.696z" fill="#FF4C5C"/><path d="M35.581 0h2.767c.25 0 .452.202.452.452v17.096c0 .25-.202.452-.452.452h-1.832a.903.903 0 01-.696-.327l-8.55-10.32a.226.226 0 00-.4.144v10.051c0 .25-.202.452-.451.452h-2.767a.452.452 0 01-.452-.452V.452c0-.25.202-.452.452-.452h1.832c.269 0 .524.12.695.327l8.55 10.32c.136.164.4.068.4-.143V.452c0-.25.203-.452.452-.452zM60.4 9a9 9 0 11-18 0 9 9 0 0118 0zM45.98 9a5.42 5.42 0 1010.84 0 5.42 5.42 0 00-10.84 0zm35.568 9h-2.696a.452.452 0 01-.452-.452V7.836a.226.226 0 00-.406-.137l-4.454 5.877a.677.677 0 01-1.08 0L68.006 7.7a.226.226 0 00-.406.137v9.712c0 .25-.202.452-.452.452h-2.696a.452.452 0 01-.452-.452V.461c0-.249.201-.45.45-.452l2.01-.008c.143 0 .277.066.363.179l5.997 7.913c.09.119.27.119.36 0L79.164.197a.451.451 0 01.36-.179h2.024c.25 0 .452.202.452.452v17.078c0 .25-.202.452-.452.452z" fill="#FF4C5C"/></svg>
